X: 38977
T: Swallow's Nest, The
R: reel
M: 4/4
K: Gmajor
~G3A GEDE|GFGA BedB|A~E3 A2 B/c/d|egfa gedB|
GBAB GEDE|{A}GFGA BABc|d(3GGG eGdG|1 E/F/GAF GDEF:|2 E/F/GAF GABc||
d~g3 edBA|GEDE GABd|ea{b}ag aged|BABd ed ge|
d~g3 agbg|aged eage|d(3GGG eGdG|1 E/F/GAF GABc:|2 E/F/GAF G4||

